svg/bold/_u0058_X.svg

<?xml version="1.0" encoding="UTF-8" standalone="no"?>
<!-- Created with Inkscape (http://www.inkscape.org/) -->

<svg
   height="1024"
   width="1024"
   sodipodi:docname="_u0058_X.svg"
   version="1.1"
   id="svg4375"
   viewBox="0 0 1024 1024"
   inkscape:version="1.2.2 (732a01da63, 2022-12-09)"
   xml:space="preserve"
   xmlns:inkscape="http://www.inkscape.org/namespaces/inkscape"
   xmlns:sodipodi="http://sodipodi.sourceforge.net/DTD/sodipodi-0.dtd"
   xmlns="http://www.w3.org/2000/svg"
   xmlns:svg="http://www.w3.org/2000/svg"
   xmlns:rdf="http://www.w3.org/1999/02/22-rdf-syntax-ns#"
   xmlns:cc="http://creativecommons.org/ns#"
   xmlns:dc="http://purl.org/dc/elements/1.1/"><sodipodi:namedview
     id="base"
     pagecolor="#ffffff"
     bordercolor="#000000"
     borderopacity="0.3"
     inkscape:pageopacity="0.0"
     inkscape:pageshadow="2"
     inkscape:zoom="1"
     inkscape:cx="795"
     inkscape:cy="542.5"
     inkscape:document-units="px"
     inkscape:current-layer="layer1"
     showgrid="false"
     showguides="true"
     inkscape:window-width="2560"
     inkscape:window-height="1361"
     inkscape:window-x="-9"
     inkscape:window-y="136"
     inkscape:window-maximized="1"
     showborder="true"
     inkscape:showpageshadow="false"
     inkscape:pagecheckerboard="0"
     inkscape:deskcolor="#d1d1d1"
     inkscape:lockguides="true"><sodipodi:guide
       id="guide_baseline"
       inkscape:label="baseline"
       position="-100,204.8"
       orientation="0,1"
       inkscape:locked="true"
       inkscape:color="rgb(165,29,45)" /><sodipodi:guide
       id="guide_ascender"
       inkscape:label="ascender"
       position="-100,1024"
       orientation="0,1"
       inkscape:locked="true"
       inkscape:color="rgb(0,134,229)" /><sodipodi:guide
       id="guide_caps"
       inkscape:label="1/10 CAPS"
       position="-100,921.6"
       orientation="0,1"
       inkscape:locked="true"
       inkscape:color="rgb(165,29,45)" /><sodipodi:guide
       id="guide_xheight"
       inkscape:label="xheight"
       position="-100,716.8"
       orientation="0,1"
       inkscape:locked="true"
       inkscape:color="rgb(165,29,45)" /><sodipodi:guide
       id="guide_descender"
       inkscape:label="descender"
       position="-100,0"
       orientation="0,1"
       inkscape:locked="true"
       inkscape:color="rgb(0,134,229)" /><sodipodi:guide
       position="204.8,1049"
       orientation="-1,0"
       id="guide4387"
       inkscape:locked="true"
       inkscape:label="204.8"
       inkscape:color="rgb(0,134,229)" /><sodipodi:guide
       position="409.6,1049"
       orientation="-1,0"
       id="guide4389"
       inkscape:locked="true"
       inkscape:label="409.6"
       inkscape:color="rgb(0,134,229)" /><sodipodi:guide
       position="-100,819.2"
       orientation="0,1"
       id="guide4391"
       inkscape:locked="true"
       inkscape:label="2/10"
       inkscape:color="rgb(38,162,105)" /><sodipodi:guide
       position="-100,614.4"
       orientation="0,1"
       id="guide4393"
       inkscape:locked="true"
       inkscape:label="4/10"
       inkscape:color="rgb(38,162,105)" /><sodipodi:guide
       position="-100,512"
       orientation="0,1"
       id="guide4395"
       inkscape:locked="true"
       inkscape:label="5/10"
       inkscape:color="rgb(38,162,105)" /><sodipodi:guide
       position="-100,409.6"
       orientation="0,1"
       id="guide4397"
       inkscape:locked="true"
       inkscape:label="6/10"
       inkscape:color="rgb(38,162,105)" /><sodipodi:guide
       position="-100,307.2"
       orientation="0,1"
       id="guide4399"
       inkscape:locked="true"
       inkscape:label="7/10"
       inkscape:color="rgb(38,162,105)" /><sodipodi:guide
       position="-100,102.4"
       orientation="0,1"
       id="guide4401"
       inkscape:locked="true"
       inkscape:label="1/10"
       inkscape:color="rgb(38,162,105)" /><sodipodi:guide
       position="614.4,1049"
       orientation="-1,0"
       id="guide4403"
       inkscape:locked="true"
       inkscape:label="614.4"
       inkscape:color="rgb(0,134,229)" /><sodipodi:guide
       position="819.2,1049"
       orientation="-1,0"
       id="guide4405"
       inkscape:locked="true"
       inkscape:label="819.2"
       inkscape:color="rgb(0,134,229)" /><sodipodi:guide
       position="1024,1049"
       orientation="-1,0"
       id="guide4407"
       inkscape:locked="true"
       inkscape:label="1024"
       inkscape:color="rgb(0,134,229)" /><sodipodi:guide
       position="-100,871.4"
       orientation="0,1"
       id="guide8061"
       inkscape:locked="true"
       inkscape:label="1.5/10"
       inkscape:color="rgb(0,134,229)" /><sodipodi:guide
       position="-100,256"
       orientation="0,1"
       id="guide8063"
       inkscape:locked="true"
       inkscape:label="7.5/10"
       inkscape:color="rgb(143,240,164)" /><sodipodi:guide
       position="102.4,1049"
       orientation="-1,0"
       id="guide8093"
       inkscape:locked="true"
       inkscape:label="102.4"
       inkscape:color="rgb(0,134,229)" /><sodipodi:guide
       position="307.2,1049"
       orientation="-1,0"
       id="guide8095"
       inkscape:locked="true"
       inkscape:label="307.2"
       inkscape:color="rgb(0,134,229)" /><sodipodi:guide
       position="512,1049"
       orientation="-1,0"
       id="guide8099"
       inkscape:locked="true"
       inkscape:label="512"
       inkscape:color="rgb(0,134,229)" /><sodipodi:guide
       position="716.8,1049"
       orientation="-1,0"
       id="guide8101"
       inkscape:locked="true"
       inkscape:label="716.8"
       inkscape:color="rgb(0,134,229)" /><sodipodi:guide
       position="921.6,1049"
       orientation="-1,0"
       id="guide8167"
       inkscape:locked="true"
       inkscape:label="921.6"
       inkscape:color="rgb(0,134,229)" /><sodipodi:guide
       position="-100,768"
       orientation="0,1"
       id="guide8258"
       inkscape:locked="true"
       inkscape:label=""
       inkscape:color="rgb(229,165,10)" /><sodipodi:guide
       position="153.6,1074"
       orientation="-1,0"
       id="guide8297"
       inkscape:locked="true"
       inkscape:label=""
       inkscape:color="rgb(0,134,229)" /><sodipodi:guide
       position="-100,564"
       orientation="0,1"
       id="guide8299"
       inkscape:locked="true"
       inkscape:label=""
       inkscape:color="rgb(0,134,229)" /><sodipodi:guide
       position="-100,665.6"
       orientation="0,1"
       id="guide8301"
       inkscape:locked="true"
       inkscape:label=""
       inkscape:color="rgb(0,134,229)" /><sodipodi:guide
       position="358.4,1074"
       orientation="-1,0"
       id="guide8303"
       inkscape:locked="true"
       inkscape:label=""
       inkscape:color="rgb(0,134,229)" /><sodipodi:guide
       position="-100,460.8"
       orientation="0,1"
       id="guide8344"
       inkscape:locked="true"
       inkscape:label=""
       inkscape:color="rgb(0,134,229)" /><sodipodi:guide
       position="-100,358.4"
       orientation="0,1"
       id="guide8346"
       inkscape:locked="true"
       inkscape:label=""
       inkscape:color="rgb(0,134,229)" /><sodipodi:guide
       position="0,1049"
       orientation="-1,0"
       id="guide9752"
       inkscape:locked="true"
       inkscape:label="0"
       inkscape:color="rgb(0,134,229)" /><sodipodi:guide
       position="256,1074"
       orientation="-1,0"
       id="guide11115"
       inkscape:locked="true"
       inkscape:label=""
       inkscape:color="rgb(0,134,229)" /><sodipodi:guide
       position="563.2,1074"
       orientation="-1,0"
       id="guide11117"
       inkscape:locked="true"
       inkscape:label=""
       inkscape:color="rgb(0,134,229)" /><sodipodi:guide
       position="665.6,1074"
       orientation="-1,0"
       id="guide12436"
       inkscape:locked="true"
       inkscape:label=""
       inkscape:color="rgb(0,134,229)" /><sodipodi:guide
       position="460.8,1074"
       orientation="-1,0"
       id="guide12704"
       inkscape:locked="true"
       inkscape:label=""
       inkscape:color="rgb(0,134,229)" /><sodipodi:guide
       position="-100,153.6"
       orientation="0,1"
       id="guide13358"
       inkscape:locked="true"
       inkscape:label="8.5/10"
       inkscape:color="rgb(0,134,229)" /><sodipodi:guide
       position="-100,128"
       orientation="0,1"
       id="guide13360"
       inkscape:locked="true"
       inkscape:label=""
       inkscape:color="rgb(0,134,229)" /><sodipodi:guide
       position="-100,51.2"
       orientation="0,1"
       id="guide30306"
       inkscape:locked="true"
       inkscape:label=""
       inkscape:color="rgb(0,134,229)" /><sodipodi:guide
       position="51.2,1074"
       orientation="-1,0"
       id="guide417"
       inkscape:locked="true"
       inkscape:label=""
       inkscape:color="rgb(0,134,229)" /><sodipodi:guide
       position="768,1074"
       orientation="-1,0"
       id="guide615"
       inkscape:locked="true"
       inkscape:label=""
       inkscape:color="rgb(0,134,229)" /><sodipodi:guide
       position="-100,972.8"
       orientation="0,1"
       id="guide9421"
       inkscape:locked="true"
       inkscape:label=""
       inkscape:color="rgb(0,134,229)" /></sodipodi:namedview><defs
     id="defs4"><linearGradient
       id="linearGradient8000"
       inkscape:swatch="solid"><stop
         style="stop-color:#000000;stop-opacity:1;"
         offset="0"
         id="stop7998" /></linearGradient><clipPath
       clipPathUnits="userSpaceOnUse"
       id="clipPath6029"><g
         inkscape:label="Clip"
         id="use6031" /></clipPath></defs><metadata
     id="metadata7"><rdf:RDF><cc:Work
         rdf:about=""><dc:format>image/svg+xml</dc:format><dc:type
           rdf:resource="http://purl.org/dc/dcmitype/StillImage" /></cc:Work></rdf:RDF></metadata><g
     id="layer1"
     inkscape:groupmode="layer"
     inkscape:label="Layer 1"
     style="display:inline"><path
       style="display:inline;fill:#000000;stroke-width:1.40001"
       d="m 0,102.4 129.6,0 228.8,228.8 232.8,-228.8 125.6,0 0,131.6 -231.8,226 231.8,233.6 0,125.6 -129.6,0 L 358.4,591.4 126.6,819.2 0,819.2 V 665.6 L 233.8,460 0,231 Z"
       id="path29671"
       sodipodi:nodetypes="ccccccccccccccccc" /></g></svg>

<?xml version="1.0" encoding="UTF-8" standalone="no"?>
<!-- Created with Inkscape (http://www.inkscape.org/) -->

<svg
   height="1024"
   width="1024"
   sodipodi:docname="_u0058_X.svg"
   version="1.1"
   id="svg4375"
   viewBox="0 0 1024 1024"
   inkscape:version="1.2.2 (732a01da63, 2022-12-09)"
   xml:space="preserve"
   xmlns:inkscape="http://www.inkscape.org/namespaces/inkscape"
   xmlns:sodipodi="http://sodipodi.sourceforge.net/DTD/sodipodi-0.dtd"
   xmlns="http://www.w3.org/2000/svg"
   xmlns:svg="http://www.w3.org/2000/svg"
   xmlns:rdf="http://www.w3.org/1999/02/22-rdf-syntax-ns#"
   xmlns:cc="http://creativecommons.org/ns#"
   xmlns:dc="http://purl.org/dc/elements/1.1/"><sodipodi:namedview
     id="base"
     pagecolor="#ffffff"
     bordercolor="#000000"
     borderopacity="0.3"
     inkscape:pageopacity="0.0"
     inkscape:pageshadow="2"
     inkscape:zoom="1"
     inkscape:cx="795"
     inkscape:cy="543.5"
     inkscape:document-units="px"
     inkscape:current-layer="layer1"
     showgrid="false"
     showguides="true"
     inkscape:window-width="2560"
     inkscape:window-height="1361"
     inkscape:window-x="-9"
     inkscape:window-y="136"
     inkscape:window-maximized="1"
     showborder="true"
     inkscape:showpageshadow="false"
     inkscape:pagecheckerboard="0"
     inkscape:deskcolor="#d1d1d1"
     inkscape:lockguides="true"><sodipodi:guide
       id="guide_baseline"
       inkscape:label="baseline"
       position="-100,204.8"
       orientation="0,1"
       inkscape:locked="true"
       inkscape:color="rgb(165,29,45)" /><sodipodi:guide
       id="guide_ascender"
       inkscape:label="ascender"
       position="-100,1024"
       orientation="0,1"
       inkscape:locked="true"
       inkscape:color="rgb(0,134,229)" /><sodipodi:guide
       id="guide_caps"
       inkscape:label="1/10 CAPS"
       position="-100,921.6"
       orientation="0,1"
       inkscape:locked="true"
       inkscape:color="rgb(165,29,45)" /><sodipodi:guide
       id="guide_xheight"
       inkscape:label="xheight"
       position="-100,716.8"
       orientation="0,1"
       inkscape:locked="true"
       inkscape:color="rgb(165,29,45)" /><sodipodi:guide
       id="guide_descender"
       inkscape:label="descender"
       position="-100,0"
       orientation="0,1"
       inkscape:locked="true"
       inkscape:color="rgb(0,134,229)" /><sodipodi:guide
       position="204.8,1049"
       orientation="-1,0"
       id="guide4387"
       inkscape:locked="true"
       inkscape:label="204.8"
       inkscape:color="rgb(0,134,229)" /><sodipodi:guide
       position="409.6,1049"
       orientation="-1,0"
       id="guide4389"
       inkscape:locked="true"
       inkscape:label="409.6"
       inkscape:color="rgb(0,134,229)" /><sodipodi:guide
       position="-100,819.2"
       orientation="0,1"
       id="guide4391"
       inkscape:locked="true"
       inkscape:label="2/10"
       inkscape:color="rgb(38,162,105)" /><sodipodi:guide
       position="-100,614.4"
       orientation="0,1"
       id="guide4393"
       inkscape:locked="true"
       inkscape:label="4/10"
       inkscape:color="rgb(38,162,105)" /><sodipodi:guide
       position="-100,512"
       orientation="0,1"
       id="guide4395"
       inkscape:locked="true"
       inkscape:label="5/10"
       inkscape:color="rgb(38,162,105)" /><sodipodi:guide
       position="-100,409.6"
       orientation="0,1"
       id="guide4397"
       inkscape:locked="true"
       inkscape:label="6/10"
       inkscape:color="rgb(38,162,105)" /><sodipodi:guide
       position="-100,307.2"
       orientation="0,1"
       id="guide4399"
       inkscape:locked="true"
       inkscape:label="7/10"
       inkscape:color="rgb(38,162,105)" /><sodipodi:guide
       position="-100,102.4"
       orientation="0,1"
       id="guide4401"
       inkscape:locked="true"
       inkscape:label="1/10"
       inkscape:color="rgb(38,162,105)" /><sodipodi:guide
       position="614.4,1049"
       orientation="-1,0"
       id="guide4403"
       inkscape:locked="true"
       inkscape:label="614.4"
       inkscape:color="rgb(0,134,229)" /><sodipodi:guide
       position="819.2,1049"
       orientation="-1,0"
       id="guide4405"
       inkscape:locked="true"
       inkscape:label="819.2"
       inkscape:color="rgb(0,134,229)" /><sodipodi:guide
       position="1024,1049"
       orientation="-1,0"
       id="guide4407"
       inkscape:locked="true"
       inkscape:label="1024"
       inkscape:color="rgb(0,134,229)" /><sodipodi:guide
       position="-100,871.4"
       orientation="0,1"
       id="guide8061"
       inkscape:locked="true"
       inkscape:label="1.5/10"
       inkscape:color="rgb(0,134,229)" /><sodipodi:guide
       position="-100,256"
       orientation="0,1"
       id="guide8063"
       inkscape:locked="true"
       inkscape:label="7.5/10"
       inkscape:color="rgb(143,240,164)" /><sodipodi:guide
       position="102.4,1049"
       orientation="-1,0"
       id="guide8093"
       inkscape:locked="true"
       inkscape:label="102.4"
       inkscape:color="rgb(0,134,229)" /><sodipodi:guide
       position="307.2,1049"
       orientation="-1,0"
       id="guide8095"
       inkscape:locked="true"
       inkscape:label="307.2"
       inkscape:color="rgb(0,134,229)" /><sodipodi:guide
       position="512,1049"
       orientation="-1,0"
       id="guide8099"
       inkscape:locked="true"
       inkscape:label="512"
       inkscape:color="rgb(0,134,229)" /><sodipodi:guide
       position="716.8,1049"
       orientation="-1,0"
       id="guide8101"
       inkscape:locked="true"
       inkscape:label="716.8"
       inkscape:color="rgb(0,134,229)" /><sodipodi:guide
       position="921.6,1049"
       orientation="-1,0"
       id="guide8167"
       inkscape:locked="true"
       inkscape:label="921.6"
       inkscape:color="rgb(0,134,229)" /><sodipodi:guide
       position="-100,768"
       orientation="0,1"
       id="guide8258"
       inkscape:locked="true"
       inkscape:label=""
       inkscape:color="rgb(229,165,10)" /><sodipodi:guide
       position="153.6,1074"
       orientation="-1,0"
       id="guide8297"
       inkscape:locked="true"
       inkscape:label=""
       inkscape:color="rgb(0,134,229)" /><sodipodi:guide
       position="-100,564"
       orientation="0,1"
       id="guide8299"
       inkscape:locked="true"
       inkscape:label=""
       inkscape:color="rgb(0,134,229)" /><sodipodi:guide
       position="-100,665.6"
       orientation="0,1"
       id="guide8301"
       inkscape:locked="true"
       inkscape:label=""
       inkscape:color="rgb(0,134,229)" /><sodipodi:guide
       position="358.4,1074"
       orientation="-1,0"
       id="guide8303"
       inkscape:locked="true"
       inkscape:label=""
       inkscape:color="rgb(0,134,229)" /><sodipodi:guide
       position="-100,460.8"
       orientation="0,1"
       id="guide8344"
       inkscape:locked="true"
       inkscape:label=""
       inkscape:color="rgb(0,134,229)" /><sodipodi:guide
       position="-100,358.4"
       orientation="0,1"
       id="guide8346"
       inkscape:locked="true"
       inkscape:label=""
       inkscape:color="rgb(0,134,229)" /><sodipodi:guide
       position="0,1049"
       orientation="-1,0"
       id="guide9752"
       inkscape:locked="true"
       inkscape:label="0"
       inkscape:color="rgb(0,134,229)" /><sodipodi:guide
       position="256,1074"
       orientation="-1,0"
       id="guide11115"
       inkscape:locked="true"
       inkscape:label=""
       inkscape:color="rgb(0,134,229)" /><sodipodi:guide
       position="563.2,1074"
       orientation="-1,0"
       id="guide11117"
       inkscape:locked="true"
       inkscape:label=""
       inkscape:color="rgb(0,134,229)" /><sodipodi:guide
       position="665.6,1074"
       orientation="-1,0"
       id="guide12436"
       inkscape:locked="true"
       inkscape:label=""
       inkscape:color="rgb(0,134,229)" /><sodipodi:guide
       position="460.8,1074"
       orientation="-1,0"
       id="guide12704"
       inkscape:locked="true"
       inkscape:label=""
       inkscape:color="rgb(0,134,229)" /><sodipodi:guide
       position="-100,153.6"
       orientation="0,1"
       id="guide13358"
       inkscape:locked="true"
       inkscape:label="8.5/10"
       inkscape:color="rgb(0,134,229)" /><sodipodi:guide
       position="-100,128"
       orientation="0,1"
       id="guide13360"
       inkscape:locked="true"
       inkscape:label=""
       inkscape:color="rgb(0,134,229)" /><sodipodi:guide
       position="-100,51.2"
       orientation="0,1"
       id="guide30306"
       inkscape:locked="true"
       inkscape:label=""
       inkscape:color="rgb(0,134,229)" /><sodipodi:guide
       position="51.2,1074"
       orientation="-1,0"
       id="guide417"
       inkscape:locked="true"
       inkscape:label=""
       inkscape:color="rgb(0,134,229)" /><sodipodi:guide
       position="768,1074"
       orientation="-1,0"
       id="guide615"
       inkscape:locked="true"
       inkscape:label=""
       inkscape:color="rgb(0,134,229)" /><sodipodi:guide
       position="-100,972.8"
       orientation="0,1"
       id="guide9421"
       inkscape:locked="true"
       inkscape:label=""
       inkscape:color="rgb(0,134,229)" /></sodipodi:namedview><defs
     id="defs4"><linearGradient
       id="linearGradient8000"
       inkscape:swatch="solid"><stop
         style="stop-color:#000000;stop-opacity:1;"
         offset="0"
         id="stop7998" /></linearGradient><clipPath
       clipPathUnits="userSpaceOnUse"
       id="clipPath6029"><g
         inkscape:label="Clip"
         id="use6031" /></clipPath></defs><metadata
     id="metadata7"><rdf:RDF><cc:Work
         rdf:about=""><dc:format>image/svg+xml</dc:format><dc:type
           rdf:resource="http://purl.org/dc/dcmitype/StillImage" /></cc:Work></rdf:RDF></metadata><g
     id="layer1"
     inkscape:groupmode="layer"
     inkscape:label="Layer 1"
     style="display:inline"><path
       style="display:inline;fill:#000000;stroke-width:1.40001"
       d="M 0,102.4 H 129.6 L 358.4,331.2 591.2,102.4 H 716.8 V 234 L 485,460 716.8,693.6 V 819.2 H 587.2 L 358.4,591.4 126.6,819.2 H 0 V 691.6 L 233.8,460 0,231 Z"
       id="path29671"
       sodipodi:nodetypes="ccccccccccccccccc" /></g></svg>
